**kern
*staff1
!!pagebreak:original
*I"P1
=1-
*clefG2
*k[b-e-a-]
*M2/4
4gg\
4gg\
=2
[4gg\
8.gg\L]
16ff#\Jk
=3
8.ffn\L
16een\Jk
8.ee-\L
16dd\Jk
=4
4dd-\
16cc\LL
16cc\
16dd-\
16cc\JJ
=5
4bn\
4aa-\
=6
[4aa-\
8.aa-\L]
16gg\Jk
=7
8.ff#\L
16dd\Jk
8.ff#\L
16aan\Jk
=8
4aa-\
=
*-
